!!!OTL: "Die Entfuehrung" AUF SCHAETZELEIN MACH AUF
!!!ARE: Europa, Mitteleuropa, Deutschland, Nord - Deutschland
!!!SCT: Z1174
!!!YEM: Copyright 1995, estate of Helmut Schaffrath.
**kern
*ICvox
*Ivox
*M3/4
*k[f#]
*G:
=1
{2.g
=2
2a
4dd
=3
2.dd}
=4
{8b
8cc
4dd
4a
=5
2g
4r}
=6
{8dd
8cc
4b
4dd
=7
8ee
8dd
8cc
8b
4cc}
=8
{8cc
8b
4a
8dd
8dd
=9
4.b
8cc
4b}
=10
{2.g
=11
2a
4ee
=12
2.dd}
=13
{8b
8cc
4dd
4a
=14
2g
4r}
=15
{8dd
8cc
4b
4dd
=16
8ee
8dd
8cc
8b
4cc}
=17
{8cc
8b
4a
4dd
=18
4.b
8cc
4b}
=19
{2.g
=20
2a
8.ee
16dd
=21
2.dd}
=22
{8b
8cc
4dd
4a
=23
2.g}
==
!!!AGN: Liebes - Lied
!!!ONB: ESAC (Essen Associative Code) Database: ZUCCAL
!!!AMT: simple triple
!!!AIN: vox
!!!EED: Helmut Schaffrath
!!!EEV: 1.0
*-
